src/assets/animalImage/img/chicken1.svg

<?xml version="1.0" encoding="UTF-8" standalone="no"?><!DOCTYPE svg PUBLIC "-//W3C//DTD SVG 1.1//EN" "http://www.w3.org/Graphics/SVG/1.1/DTD/svg11.dtd"><svg width="100%" height="100%" viewBox="0 0 170 280" version="1.1" xmlns="http://www.w3.org/2000/svg" xmlns:xlink="http://www.w3.org/1999/xlink" xml:space="preserve" style="fill-rule:evenodd;clip-rule:evenodd;stroke-linejoin:round;stroke-miterlimit:1.41421;"><path d="M80.495,83.459c4.603,4.803 11.847,4.64 16.203,-0.397c2.313,-2.675 4.844,-5.591 7.166,-8.26c4.365,-5.031 4.575,-14.121 5.359,-20.728c0.469,-3.84 3.025,-5.337 6.138,-5.515c6.647,-0.363 12.137,-2.194 8.915,-8.022c-2.678,-4.844 -7.215,-6.9 -11.6,-7.325c-6.628,-0.647 -12.965,-2.525 -10.659,-8.763c2.212,-5.959 7.206,-9.187 11.487,-9.187c4.691,-0.141 8.391,2.959 11.107,6.575c3.975,5.331 5.287,5.241 3.625,-1.21c-4.46,-17.406 -15.613,-21.265 -30.61,-20.546c-25.343,1.206 -32.231,32.387 -34.29,53.344c-0.65,6.628 3.19,15.64 7.844,20.399c3.006,3.066 6.353,6.544 9.315,9.635Z" style="fill:#a32921;fill-rule:nonzero;"/><path d="M117.82,67.353c-3.894,-4.172 -10.444,-3.385 -13.978,1.078l-9.719,12.275c-3.537,4.459 -9.547,4.7 -13.419,0.519l-12.609,-13.601c-3.869,-4.181 -10.112,-4.134 -13.619,0.35c-50.497,64.647 -54.637,168.163 -54.471,201.085c0.031,5.697 0.637,10.315 1.087,10.315c0.453,0 2.388,-2.95 4.331,-6.609c1.931,-3.647 4.941,-3.647 6.713,0c1.775,3.659 3.612,6.609 4.109,6.609c0.488,0 2.466,-2.95 4.4,-6.609c1.931,-3.647 4.944,-3.647 6.719,0c1.775,3.659 3.615,6.609 4.112,6.609c0.488,0 2.463,-2.95 4.394,-6.609c1.934,-3.647 4.947,-3.647 6.719,0c1.775,3.659 3.612,6.609 4.1,6.609c0.49,0 2.468,-2.95 4.406,-6.609c1.931,-3.647 4.947,-3.647 6.719,0c1.769,3.659 3.609,6.609 4.1,6.609c0.494,0 2.462,-2.95 4.397,-6.609c1.94,-3.647 4.95,-3.647 6.725,0c1.762,3.659 3.609,6.609 4.106,6.609c0.49,0 2.459,-2.95 4.394,-6.609c1.934,-3.647 4.947,-3.647 6.718,0c1.775,3.659 3.61,6.609 4.097,6.609c0.5,0 2.469,-2.95 4.403,-6.609c1.941,-3.647 4.954,-3.647 6.719,0c1.778,3.659 3.606,6.609 4.113,6.609c0.5,0 2.462,-2.95 4.396,-6.609c1.944,-3.647 4.954,-3.647 6.726,0c1.772,3.659 3.609,6.609 4.109,6.609c0.494,0 2.466,-2.95 4.394,-6.609c1.937,-3.647 4.95,-3.647 6.731,0c1.759,3.659 3.6,6.609 4.1,6.609c0.497,0 2.462,-2.95 4.4,-6.609c1.937,-3.647 4.95,-3.647 6.725,0c1.769,3.659 3.606,6.609 4.103,6.609c0.494,0 2.462,-2.95 4.397,-6.609c1.941,-3.647 4.95,-3.647 6.725,0c1.772,3.659 3.525,6.609 3.919,6.609c0.4,0 0.887,-4.618 0.997,-10.315c2.534,-129.25 -35.004,-183.988 -51.488,-201.706Z" style="fill:#d37728;fill-rule:nonzero;"/><path d="M51.211,127.562c0,-4.391 3.578,-7.966 7.95,-7.966c4.4,0 7.972,3.575 7.972,7.966c0,4.391 -3.578,7.965 -7.972,7.965c-4.372,0 -7.95,-3.574 -7.95,-7.965Z" style="fill:#fff;fill-rule:nonzero;"/><path d="M103.998,127.562c0,-4.391 3.575,-7.966 7.95,-7.966c4.397,0 7.972,3.575 7.972,7.966c0,4.391 -3.581,7.965 -7.972,7.965c-4.375,0 -7.95,-3.574 -7.95,-7.965Z" style="fill:#fff;fill-rule:nonzero;"/><path d="M111.117,170.425l-7.481,16.725c-2.322,5.203 -3.922,9.615 -3.638,9.949l0.435,0.654c9.762,19.981 12.693,37.431 7.69,45.468c-1.691,2.741 -4.272,4.25 -7.266,4.26c-2.518,0 -5.321,-0.638 -7.946,-2.653c-3.744,-2.866 -7.01,-2.657 -11.169,0.359c-3.094,2.244 -6.344,3.147 -8.609,3.147l-0.454,-0.019c-3.422,-0.381 -6.118,-2.119 -7.8,-5.012c-6.834,-11.8 5.963,-42.122 7.438,-45.532l0.297,-0.522c0.184,-0.284 -1.719,-4.581 -4.313,-9.653l-8.072,-15.809c-2.093,-4.097 -1.006,-9.091 2.594,-11.95l17.369,-13.747c3.519,-2.772 8.487,-2.753 11.99,0.035l16.141,12.84c3.441,2.738 4.585,7.441 2.794,11.46Z" style="fill:#e1b7a6;fill-rule:nonzero;"/><path d="M112.748,135.984c-2.672,0 -4.834,-2.172 -4.834,-4.835c0,-2.665 2.172,-4.834 4.834,-4.834c2.663,0 4.828,2.169 4.828,4.834c0,2.663 -2.168,4.835 -4.828,4.835Z" style="fill:#030404;fill-rule:nonzero;"/><path d="M96.339,206.468l-0.56,1.069c-1.509,3.006 -5.256,4.881 -8.609,4.881c-3.353,0 -7.091,-1.875 -8.619,-4.881c0,0 -0.253,-0.481 -0.547,-1.069c-0.312,-0.587 -1.346,0.919 -2.237,3.419c-3.8,10.762 -7.003,24.047 -4.122,29.022c0.294,0.509 0.653,0.9 1.078,1.172c0.75,0.484 3.763,0.331 5.916,-1.213c2.644,-1.912 5.428,-5.712 5.753,-12.931c0.041,-0.763 0.356,-1.45 0.85,-1.956c0.834,-0.857 3.012,-0.857 3.853,0c0.494,0.506 0.813,1.193 0.85,1.956c0.319,7.219 3.106,11.019 5.759,12.931c2.141,1.544 5.163,1.697 5.922,1.213c0.425,-0.272 0.766,-0.663 1.069,-1.172c2.897,-4.975 -0.316,-18.26 -4.119,-29.022c-0.89,-2.5 -1.934,-4.006 -2.237,-3.419Z" style="fill:#6f0d33;fill-rule:nonzero;"/><path d="M91.433,145.584c-2.822,-2.247 -7.41,-2.247 -10.232,-0.01l-11.753,9.3c-2.834,2.241 -3.79,6.666 -2.144,9.866l16.394,32.113c1.644,3.221 4.169,3.156 5.641,-0.132l14.744,-32.972c1.478,-3.3 0.381,-7.787 -2.429,-10.04l-10.221,-8.125Z" style="fill:#a32921;fill-rule:nonzero;"/><path d="M55.173,132.237c0,-2.663 2.169,-4.834 4.825,-4.834c2.669,0 4.838,2.171 4.838,4.834c0,2.666 -2.172,4.834 -4.838,4.834c-2.656,0 -4.825,-2.168 -4.825,-4.834Z" style="fill:#030404;fill-rule:nonzero;"/></svg>

<?xml version="1.0" encoding="UTF-8" standalone="no"?>
<!DOCTYPE svg PUBLIC "-//W3C//DTD SVG 1.1//EN" "http://www.w3.org/Graphics/SVG/1.1/DTD/svg11.dtd">
<svg width="100%" height="100%" viewBox="0 0 280 280" version="1.1" xmlns="http://www.w3.org/2000/svg" xmlns:xlink="http://www.w3.org/1999/xlink" xml:space="preserve" xmlns:serif="http://www.serif.com/" style="fill-rule:evenodd;clip-rule:evenodd;stroke-linejoin:round;stroke-miterlimit:1.41421;">
    <g transform="matrix(1,0,0,1,55,0)">
        <path d="M80.495,83.459C85.098,88.262 92.342,88.099 96.698,83.062C99.011,80.387 101.542,77.471 103.864,74.802C108.229,69.771 108.439,60.681 109.223,54.074C109.692,50.234 112.248,48.737 115.361,48.559C122.008,48.196 127.498,46.365 124.276,40.537C121.598,35.693 117.061,33.637 112.676,33.212C106.048,32.565 99.711,30.687 102.017,24.449C104.229,18.49 109.223,15.262 113.504,15.262C118.195,15.121 121.895,18.221 124.611,21.837C128.586,27.168 129.898,27.078 128.236,20.627C123.776,3.221 112.623,-0.638 97.626,0.081C72.283,1.287 65.395,32.468 63.336,53.425C62.686,60.053 66.526,69.065 71.18,73.824C74.186,76.89 77.533,80.368 80.495,83.459Z" style="fill:rgb(163,41,33);fill-rule:nonzero;"/>
    </g>
    <g transform="matrix(1,0,0,1,55,0)">
        <path d="M117.82,67.353C113.926,63.181 107.376,63.968 103.842,68.431L94.123,80.706C90.586,85.165 84.576,85.406 80.704,81.225L68.095,67.624C64.226,63.443 57.983,63.49 54.476,67.974C3.979,132.621 -0.161,236.137 0.005,269.059C0.036,274.756 0.642,279.374 1.092,279.374C1.545,279.374 3.48,276.424 5.423,272.765C7.354,269.118 10.364,269.118 12.136,272.765C13.911,276.424 15.748,279.374 16.245,279.374C16.733,279.374 18.711,276.424 20.645,272.765C22.576,269.118 25.589,269.118 27.364,272.765C29.139,276.424 30.979,279.374 31.476,279.374C31.964,279.374 33.939,276.424 35.87,272.765C37.804,269.118 40.817,269.118 42.589,272.765C44.364,276.424 46.201,279.374 46.689,279.374C47.179,279.374 49.157,276.424 51.095,272.765C53.026,269.118 56.042,269.118 57.814,272.765C59.583,276.424 61.423,279.374 61.914,279.374C62.408,279.374 64.376,276.424 66.311,272.765C68.251,269.118 71.261,269.118 73.036,272.765C74.798,276.424 76.645,279.374 77.142,279.374C77.632,279.374 79.601,276.424 81.536,272.765C83.47,269.118 86.483,269.118 88.254,272.765C90.029,276.424 91.864,279.374 92.351,279.374C92.851,279.374 94.82,276.424 96.754,272.765C98.695,269.118 101.708,269.118 103.473,272.765C105.251,276.424 107.079,279.374 107.586,279.374C108.086,279.374 110.048,276.424 111.982,272.765C113.926,269.118 116.936,269.118 118.708,272.765C120.48,276.424 122.317,279.374 122.817,279.374C123.311,279.374 125.283,276.424 127.211,272.765C129.148,269.118 132.161,269.118 133.942,272.765C135.701,276.424 137.542,279.374 138.042,279.374C138.539,279.374 140.504,276.424 142.442,272.765C144.379,269.118 147.392,269.118 149.167,272.765C150.936,276.424 152.773,279.374 153.27,279.374C153.764,279.374 155.732,276.424 157.667,272.765C159.608,269.118 162.617,269.118 164.392,272.765C166.164,276.424 167.917,279.374 168.311,279.374C168.711,279.374 169.198,274.756 169.308,269.059C171.842,139.809 134.304,85.071 117.82,67.353Z" style="fill:rgb(211,119,40);fill-rule:nonzero;"/>
    </g>
    <g transform="matrix(1,0,0,1,55,0)">
        <path d="M51.211,127.562C51.211,123.171 54.789,119.596 59.161,119.596C63.561,119.596 67.133,123.171 67.133,127.562C67.133,131.953 63.555,135.527 59.161,135.527C54.789,135.527 51.211,131.953 51.211,127.562Z" style="fill:white;fill-rule:nonzero;"/>
    </g>
    <g transform="matrix(1,0,0,1,55,0)">
        <path d="M103.998,127.562C103.998,123.171 107.573,119.596 111.948,119.596C116.345,119.596 119.92,123.171 119.92,127.562C119.92,131.953 116.339,135.527 111.948,135.527C107.573,135.527 103.998,131.953 103.998,127.562Z" style="fill:white;fill-rule:nonzero;"/>
    </g>
    <g transform="matrix(1,0,0,1,55,0)">
        <path d="M111.117,170.425L103.636,187.15C101.314,192.353 99.714,196.765 99.998,197.099L100.433,197.753C110.195,217.734 113.126,235.184 108.123,243.221C106.432,245.962 103.851,247.471 100.857,247.481C98.339,247.481 95.536,246.843 92.911,244.828C89.167,241.962 85.901,242.171 81.742,245.187C78.648,247.431 75.398,248.334 73.133,248.334L72.679,248.315C69.257,247.934 66.561,246.196 64.879,243.303C58.045,231.503 70.842,201.181 72.317,197.771L72.614,197.249C72.798,196.965 70.895,192.668 68.301,187.596L60.229,171.787C58.136,167.69 59.223,162.696 62.823,159.837L80.192,146.09C83.711,143.318 88.679,143.337 92.182,146.125L108.323,158.965C111.764,161.703 112.908,166.406 111.117,170.425Z" style="fill:rgb(225,183,166);fill-rule:nonzero;"/>
    </g>
    <g transform="matrix(1,0,0,1,55,0)">
        <path d="M112.748,135.984C110.076,135.984 107.914,133.812 107.914,131.149C107.914,128.484 110.086,126.315 112.748,126.315C115.411,126.315 117.576,128.484 117.576,131.149C117.576,133.812 115.408,135.984 112.748,135.984Z" style="fill:rgb(3,4,4);fill-rule:nonzero;"/>
    </g>
    <g transform="matrix(1,0,0,1,55,0)">
        <path d="M96.339,206.468L95.779,207.537C94.27,210.543 90.523,212.418 87.17,212.418C83.817,212.418 80.079,210.543 78.551,207.537C78.551,207.537 78.298,207.056 78.004,206.468C77.692,205.881 76.658,207.387 75.767,209.887C71.967,220.649 68.764,233.934 71.645,238.909C71.939,239.418 72.298,239.809 72.723,240.081C73.473,240.565 76.486,240.412 78.639,238.868C81.283,236.956 84.067,233.156 84.392,225.937C84.433,225.174 84.748,224.487 85.242,223.981C86.076,223.124 88.254,223.124 89.095,223.981C89.589,224.487 89.908,225.174 89.945,225.937C90.264,233.156 93.051,236.956 95.704,238.868C97.845,240.412 100.867,240.565 101.626,240.081C102.051,239.809 102.392,239.418 102.695,238.909C105.592,233.934 102.379,220.649 98.576,209.887C97.686,207.387 96.642,205.881 96.339,206.468Z" style="fill:rgb(111,13,51);fill-rule:nonzero;"/>
    </g>
    <g transform="matrix(1,0,0,1,55,0)">
        <path d="M91.433,145.584C88.611,143.337 84.023,143.337 81.201,145.574L69.448,154.874C66.614,157.115 65.658,161.54 67.304,164.74L83.698,196.853C85.342,200.074 87.867,200.009 89.339,196.721L104.083,163.749C105.561,160.449 104.464,155.962 101.654,153.709L91.433,145.584Z" style="fill:rgb(163,41,33);fill-rule:nonzero;"/>
    </g>
    <g transform="matrix(1,0,0,1,55,0)">
        <path d="M55.173,132.237C55.173,129.574 57.342,127.403 59.998,127.403C62.667,127.403 64.836,129.574 64.836,132.237C64.836,134.903 62.664,137.071 59.998,137.071C57.342,137.071 55.173,134.903 55.173,132.237Z" style="fill:rgb(3,4,4);fill-rule:nonzero;"/>
    </g>
</svg>
